X:218
T:Ashleys Hornpipe. VWMLa.218
%%VWML:Anon2-3049-p137-0
F:http://www.vwml.org/record/Anon2/3049/p137
S:Anon. MS, late 18thC, Vaughan Williams Mem. Library
O:England;Yorkshire
Z:vmp/efdss.Simon Wilson. Reviewed PJH 2008.
M:C|
L:1/8
Q:1/2=80
K:F
FGAB cAGF|gfed d2c2|AcAF BdBG|AcAF FEDC|\
FGAB cAGF|gfed d2c2|AcAF BdBG|F2F2 F4:|
|:cdef egec|fafd egec|cdef gedc|AcAF EGEC|\
AcAF ddBG|egec fafd|cfed cBAG|F2F2 F4:|
